openframe-frontend-core/src/components/icons-v2/brand-logos/app-store.svg

<svg width="24" height="24" viewBox="0 0 24 24" fill="none" xmlns="http://www.w3.org/2000/svg">
<path d="M19.875 6C19.875 4.96447 19.0355 4.125 18 4.125H6C4.96447 4.125 4.125 4.96447 4.125 6V18C4.125 19.0355 4.96447 19.875 6 19.875H18C19.0355 19.875 19.875 19.0355 19.875 18V6ZM22.125 18C22.125 20.2782 20.2782 22.125 18 22.125H6C3.72183 22.125 1.875 20.2782 1.875 18V6C1.875 3.72183 3.72183 1.875 6 1.875H18C20.2782 1.875 22.125 3.72183 22.125 6V18Z" fill="#888888"/>
<path d="M12.0122 5.96094C12.3098 5.41564 12.9932 5.21521 13.5386 5.5127C14.084 5.81023 14.2858 6.49362 13.9883 7.03906L10.2588 13.8755H12.2144L12.3301 13.8813C12.8971 13.9393 13.3394 14.4182 13.3394 15.0005C13.3391 15.5826 12.897 16.0618 12.3301 16.1196L12.2144 16.1255H9.03125L7.98828 18.0386C7.6909 18.5838 7.00724 18.7852 6.46191 18.4883C5.91664 18.1909 5.71512 17.5073 6.01221 16.9619L6.4707 16.1226C5.86311 16.107 5.37526 15.6118 5.375 15.0005C5.375 14.3792 5.87868 13.8755 6.5 13.8755H7.69531L10.7173 8.33252L10.0127 7.03906L9.96289 6.93506C9.74169 6.40953 9.94978 5.79178 10.4609 5.5127C10.9722 5.23383 11.605 5.39259 11.9272 5.86279L11.9873 5.96094L11.999 5.98438L12.0122 5.96094ZM13.1724 10.4814C13.6834 10.203 14.3149 10.3618 14.6372 10.8315L14.6987 10.9297L16.3042 13.8755H17.4995L17.6152 13.8813C18.1824 13.9391 18.6245 14.4181 18.6245 15.0005C18.6243 15.6114 18.1374 16.1065 17.5303 16.1226L17.9873 16.9619C18.2846 17.5073 18.0844 18.1908 17.5391 18.4883C16.9936 18.7858 16.3102 18.584 16.0127 18.0386L12.7227 12.0078L12.6729 11.9038C12.4519 11.3782 12.661 10.7603 13.1724 10.4814Z" fill="#888888"/>
</svg>

<svg xmlns="http://www.w3.org/2000/svg" width="24" height="24" fill="none" viewBox="0 0 24 24">
  <path fill="#888" d="M19.875 6c0-1.036-.84-1.875-1.875-1.875H6c-1.036 0-1.875.84-1.875 1.875v12c0 1.035.84 1.875 1.875 1.875h12c1.035 0 1.875-.84 1.875-1.875V6Zm2.25 12A4.125 4.125 0 0 1 18 22.125H6A4.125 4.125 0 0 1 1.875 18V6A4.125 4.125 0 0 1 6 1.875h12A4.125 4.125 0 0 1 22.125 6v12Z"/>
  <path fill="#888" d="M12.012 5.96a1.125 1.125 0 0 1 1.976 1.08l-3.73 6.836h1.956l.116.005a1.125 1.125 0 0 1 0 2.239l-.116.005H9.031L7.988 18.04a1.126 1.126 0 0 1-1.976-1.077l.459-.84a1.123 1.123 0 0 1 .029-2.246h1.195l3.022-5.543-.704-1.294-.05-.104a1.125 1.125 0 0 1 1.964-1.072l.06.098.012.023.013-.023Zm1.16 4.521a1.125 1.125 0 0 1 1.465.35l.062.099 1.605 2.946H17.5l.115.005a1.125 1.125 0 0 1-.085 2.242l.457.839a1.125 1.125 0 1 1-1.974 1.077l-3.29-6.031-.05-.104a1.125 1.125 0 0 1 .5-1.423Z"/>
</svg>
